X: 1
T:Alec Howie's Dancing Feet
C:Bob Massie
H:1998
N:Alec Howie, one-time Clyde-side anarchist who loves the crack and whose
N:dancing style always remind me of an epileptic spider.
M:6/8
L:1/4
Q:1/4=120     %Tempo
K:D
FED3/2 E/DF |z/ E/DA FAd |z AB3/2 d/BA |FD E4 |
FED3/2 D/DF |z/ E/DA FAd |z BA dBA |EF D4 |
FAB3/2 _B/=Bd |BAF EDA |z2 B dBA |FD E4 |
FED3/2 E/DF |EDA FAd |z AB dBA |EF D4 |]
% Output from ABC2Win  Version 2.1 h on 03/11/2001
